svg/fluentui-system-icons/ic_fluent_headphones_sound_wave_24_filled.svg

<svg width="24" height="24" viewBox="0 0 24 24" fill="none" xmlns="http://www.w3.org/2000/svg">
<path d="M3.5 12C3.5 7.30558 7.30558 3.5 12 3.5C16.6944 3.5 20.5 7.30558 20.5 12V14H18.25C17.8358 14 17.5 14.3358 17.5 14.75V21.25C17.5 21.6642 17.8358 22 18.25 22H19C20.6569 22 22 20.6569 22 19V12C22 6.47715 17.5228 2 12 2C6.47715 2 2 6.47715 2 12V19C2 20.6569 3.34315 22 5 22H5.75C6.16421 22 6.5 21.6642 6.5 21.25V14.75C6.5 14.3358 6.16421 14 5.75 14H3.5V12ZM12.75 11.75C12.75 11.3358 12.4142 11 12 11C11.5858 11 11.25 11.3358 11.25 11.75V22.25C11.25 22.6642 11.5858 23 12 23C12.4142 23 12.75 22.6642 12.75 22.25V11.75ZM8.75 14C9.16421 14 9.5 14.3358 9.5 14.75V19.2502C9.5 19.6644 9.16421 20.0002 8.75 20.0002C8.33579 20.0002 8 19.6644 8 19.2502V14.75C8 14.3358 8.33579 14 8.75 14ZM16 14.75C16 14.3358 15.6642 14 15.25 14C14.8358 14 14.5 14.3358 14.5 14.75V19.2502C14.5 19.6644 14.8358 20.0002 15.25 20.0002C15.6642 20.0002 16 19.6644 16 19.2502V14.75Z" fill="#212121"/>
</svg>

<svg xmlns="http://www.w3.org/2000/svg" width="24" height="24"><path d="M3.5 12a8.5 8.5 0 0 1 17 0v2h-2.25a.75.75 0 0 0-.75.75v6.5c0 .414.336.75.75.75H19a3 3 0 0 0 3-3v-7c0-5.523-4.477-10-10-10S2 6.477 2 12v7a3 3 0 0 0 3 3h.75a.75.75 0 0 0 .75-.75v-6.5a.75.75 0 0 0-.75-.75H3.5v-2Zm9.25-.25a.75.75 0 0 0-1.5 0v10.5a.75.75 0 0 0 1.5 0v-10.5Zm-4 2.25a.75.75 0 0 1 .75.75v4.5a.75.75 0 0 1-1.5 0v-4.5a.75.75 0 0 1 .75-.75Zm7.25.75a.75.75 0 0 0-1.5 0v4.5a.75.75 0 0 0 1.5 0v-4.5Z"/></svg>
